black/svg/1F976.svg

<svg id="emoji" viewBox="0 0 72 72" version="1.1" xmlns="http://www.w3.org/2000/svg">
  <g id="line">
    <path fill="none" stroke="#000" stroke-linecap="round" stroke-miterlimit="10" stroke-width="2" d="m43.82 57.64c-4.716 1.696-9.854 1.813-14.64 0.3351"/>
    <path fill="none" stroke="#000" stroke-linecap="round" stroke-miterlimit="10" stroke-width="2" d="m50.91 18.49c3.818 3.249 6.469 7.657 7.55 12.55"/>
    <path fill="none" stroke="#000" stroke-linecap="round" stroke-miterlimit="10" stroke-width="2" d="m13.56 30.92c0.1547-0.6824 0.3382-1.351 0.549-2.004"/>
    <path fill="none" stroke="#000" stroke-miterlimit="10" stroke-width="2" d="m11.65 36.29c-0.7568 1.745-1.128 3.633-1.089 5.535 0.1645 4.748 1.26 9.418 3.224 13.74 0.2737 0.5758 0.7167 0.5752 0.99 0 1.964-4.327 3.06-8.997 3.225-13.75v-5e-4c-9e-4 -4.313-1.67-7.822-3.72-7.822-0.9925-0.0025-1.926 0.8115-2.629 2.29z"/>
    <path fill="none" stroke="#000" stroke-miterlimit="10" stroke-width="2" d="m54.65 36.29c-0.7568 1.745-1.128 3.633-1.089 5.535 0.1645 4.748 1.26 9.418 3.224 13.74 0.2737 0.5758 0.7167 0.5752 0.99 0 1.964-4.327 3.06-8.997 3.225-13.75v-5e-4c-9e-4 -4.313-1.67-7.822-3.72-7.822-0.9925-0.0025-1.926 0.8115-2.629 2.29z"/>
    <path fill="none" stroke="#000" stroke-miterlimit="10" stroke-width="2" d="m21.36 52.22c-0.5411 0.8848-0.8175 1.906-0.7965 2.943 0.1523 2.597 0.9634 5.112 2.357 7.308 0.094 0.1999 0.3323 0.2857 0.5322 0.1917 0.0843-0.0396 0.152-0.1074 0.1917-0.1917 1.394-2.197 2.205-4.712 2.358-7.309-7e-4 -2.294-1.221-4.16-2.72-4.16-0.8076 0.0481-1.534 0.508-1.922 1.218z"/>
    <path fill="none" stroke="#000" stroke-miterlimit="10" stroke-width="2" d="m47.36 52.22c-0.5411 0.8848-0.8175 1.906-0.7965 2.943 0.1523 2.597 0.9634 5.112 2.357 7.308 0.094 0.1999 0.3323 0.2857 0.5322 0.1917 0.0843-0.0396 0.152-0.1074 0.1917-0.1917 1.394-2.197 2.205-4.712 2.358-7.309-7e-4 -2.294-1.221-4.16-2.72-4.16-0.8076 0.0481-1.534 0.508-1.922 1.218z"/>
    <path fill="none" stroke="#000" stroke-miterlimit="2" stroke-width="2" d="m44.5 49.27h-17c-2.206-0.0065-3.994-1.794-4-4 0.0065-2.206 1.794-3.994 4-4h17c2.206 0.0065 3.994 1.794 4 4-0.0065 2.206-1.794 3.994-4 4z"/>
    <line x1="28" x2="28" y1="41.77" y2="48.77" fill="none" stroke="#000" stroke-linecap="round" stroke-linejoin="round" stroke-width="2"/>
    <line x1="33" x2="33" y1="41.77" y2="48.77" fill="none" stroke="#000" stroke-linecap="round" stroke-linejoin="round" stroke-width="2"/>
    <line x1="38" x2="38" y1="41.77" y2="48.77" fill="none" stroke="#000" stroke-linecap="round" stroke-linejoin="round" stroke-width="2"/>
    <line x1="43" x2="43" y1="41.77" y2="48.77" fill="none" stroke="#000" stroke-linecap="round" stroke-linejoin="round" stroke-width="2"/>
    <path fill="none" stroke="#000" stroke-miterlimit="10" stroke-width="2" d="m48.34 16.8c0.795-0.1657 1.522-0.8843 1.665-2.799 0.2987-3.989-9-4-9-4s-3 0-9-3-12 7-12 7-3 6-5 5-5 2-3 6c0 0 1 7 6 2s3-8 10-7 11 0 11-2 5-4 7-2c0.5946 0.6418 1.472 0.942 2.335 0.7993"/>
    <path d="m30 31c0 1.657-1.345 3-3 3-1.655 0-3-1.343-3-3 0-1.655 1.345-3 3-3 1.655 0 3 1.345 3 3"/>
    <path d="m48 31c0 1.657-1.345 3-3 3s-3-1.343-3-3c0-1.655 1.345-3 3-3s3 1.345 3 3"/>
  </g>
</svg>

<svg id="emoji" viewBox="0 0 72 72" xmlns="http://www.w3.org/2000/svg">
  <g id="line">
    <path fill="none" stroke="#000000" stroke-linecap="round" stroke-miterlimit="10" stroke-width="2" d="M43.8205,57.6363 c-4.7155,1.6955-9.8543,1.8131-14.6425,0.3351"/>
    <path fill="none" stroke="#000000" stroke-linecap="round" stroke-miterlimit="10" stroke-width="2" d="M50.9146,18.4907 c3.8179,3.2489,6.4692,7.6567,7.55,12.5519"/>
    <path fill="none" stroke="#000000" stroke-linecap="round" stroke-miterlimit="10" stroke-width="2" d="M13.5618,30.9249 C16.3717,18.53,28.6976,10.7598,41.0925,13.5697c2.1987,0.4984,4.3123,1.3173,6.2729,2.4303"/>
    <path fill="#FFFFFF" stroke="#000000" stroke-miterlimit="10" stroke-width="2" d="M11.6507,36.29 c-0.7568,1.7452-1.1284,3.633-1.0894,5.5348c0.1645,4.7481,1.2598,9.4176,3.2237,13.7436c0.2737,0.5758,0.7167,0.5752,0.99,0 c1.9644-4.3267,3.0601-8.9969,3.225-13.7458v-0.0005C17.9991,37.5092,16.33,34,14.28,34 C13.2875,33.9975,12.3535,34.8115,11.6507,36.29z"/>
    <path fill="#FFFFFF" stroke="#000000" stroke-miterlimit="10" stroke-width="2" d="M54.6507,36.29 c-0.7568,1.7452-1.1284,3.633-1.0894,5.5348c0.1645,4.7481,1.2598,9.4176,3.2237,13.7436c0.2737,0.5758,0.7167,0.5752,0.99,0 c1.9644-4.3267,3.0601-8.9969,3.225-13.7458v-0.0005C60.9991,37.5092,59.33,34,57.28,34 C56.2875,33.9975,55.3535,34.8115,54.6507,36.29z"/>
    <path fill="#FFFFFF" stroke="#000000" stroke-miterlimit="10" stroke-width="2" d="M21.3578,52.2176 c-0.5411,0.8848-0.8175,1.9061-0.7965,2.943c0.1523,2.5967,0.9634,5.1118,2.357,7.3081c0.094,0.1999,0.3323,0.2857,0.5322,0.1917 c0.0843-0.0396,0.152-0.1074,0.1917-0.1917C25.0359,60.2721,25.8473,57.7569,26,55.16l0,0C25.9993,52.866,24.7793,51,23.28,51 C22.4724,51.0481,21.7463,51.508,21.3578,52.2176z"/>
    <path fill="#FFFFFF" stroke="#000000" stroke-miterlimit="10" stroke-width="2" d="M47.3578,52.2176 c-0.5411,0.8848-0.8175,1.9061-0.7965,2.943c0.1523,2.5967,0.9634,5.1118,2.357,7.3081c0.094,0.1999,0.3323,0.2857,0.5322,0.1917 c0.0843-0.0396,0.152-0.1074,0.1917-0.1917C51.0359,60.2721,51.8473,57.7569,52,55.16l0,0C51.9993,52.866,50.7793,51,49.28,51 C48.4724,51.0481,47.7463,51.508,47.3578,52.2176z"/>
    <path fill="#FFFFFF" stroke="#000000" stroke-miterlimit="2" stroke-width="2" d="M44.5,49.2708h-17 c-2.2064-0.0065-3.9935-1.7936-4-4l0,0c0.0065-2.2064,1.7936-3.9935,4-4h17c2.2064,0.0065,3.9935,1.7936,4,4l0,0 C48.4935,47.4772,46.7064,49.2643,44.5,49.2708z"/>
    <line x1="28" x2="28" y1="41.7708" y2="48.7708" fill="none" stroke="#000000" stroke-linecap="round" stroke-linejoin="round" stroke-width="2"/>
    <line x1="33" x2="33" y1="41.7708" y2="48.7708" fill="none" stroke="#000000" stroke-linecap="round" stroke-linejoin="round" stroke-width="2"/>
    <line x1="38" x2="38" y1="41.7708" y2="48.7708" fill="none" stroke="#000000" stroke-linecap="round" stroke-linejoin="round" stroke-width="2"/>
    <line x1="43" x2="43" y1="41.7708" y2="48.7708" fill="none" stroke="#000000" stroke-linecap="round" stroke-linejoin="round" stroke-width="2"/>
    <path fill="#FFFFFF" stroke="#000000" stroke-miterlimit="10" stroke-width="2" d="M48.335,16.7993 C49.13,16.6336,49.8566,15.915,50,14c0.2987-3.9888-9-4-9-4s-3,0-9-3s-12,7-12,7s-3,6-5,5s-5,2-3,6c0,0,1,7,6,2s3-8,10-7s11,0,11-2 s5-4,7-2C46.5946,16.6418,47.4718,16.942,48.335,16.7993"/>
    <path d="M30,31c0,1.6568-1.3448,3-3,3c-1.6553,0-3-1.3433-3-3c0-1.6552,1.3447-3,3-3C28.6552,28,30,29.3448,30,31"/>
    <path d="M48,31c0,1.6568-1.3447,3-3,3s-3-1.3433-3-3c0-1.6552,1.3447-3,3-3S48,29.3448,48,31"/>
  </g>
</svg>
